X: 38
T:Billy Boy, Bledington (alt)
S:TM, from Benfield
A:Bledington
M:6/8
P:A(AB2)4(A)
K:G
P:A
|:GBd cAB|c2A AGA|B2gE2E|DEF G3:|
P:B
|:GBd ecA|B2c dBG|Bcd E2e|ABc dcA|
GBd cAB|c2A AGA|B2gE2E|DEF G3:|

